contributed-vectors/antennapod.svg

<svg width="192" height="192" viewBox="0 0 192 192" fill="none" xmlns="http://www.w3.org/2000/svg">
<path fill-rule="evenodd" clip-rule="evenodd" d="M96 184C144.6 184 184 144.6 184 96C184 47.4 144.6 8 96 8C47.4 8 8 47.4 8 96C8 144.6 47.4 184 96 184Z" fill="url(#paint0_linear_30_5)"/>
<path d="M62.1412 129.791C57.0528 125.108 52.9911 119.421 50.2128 113.088C47.4345 106.755 46 99.9153 46 93C46 79.7392 51.2678 67.0215 60.6447 57.6447C70.0215 48.2678 82.7392 43 96 43C102.566 43 109.068 44.2933 115.134 46.806C121.2 49.3188 126.712 53.0017 131.355 57.6447C135.998 62.2876 139.681 67.7996 142.194 73.8658C144.707 79.9321 146 86.4339 146 93V93C146 99.9169 144.565 106.759 141.785 113.092C139.006 119.426 134.942 125.115 129.852 129.798" stroke="#CCDEFF" stroke-width="8" stroke-miterlimit="1" stroke-linecap="round"/>
<path fill-rule="evenodd" clip-rule="evenodd" d="M95.9991 77.7629C89.3394 77.7638 83.941 83.2444 83.9405 90.0051C83.9405 92.3862 84.629 94.715 85.9151 96.7062L72.3643 149.861H82.0245L94.8038 102.159C95.0541 101.647 95.5995 100.004 95.9991 100.013C96.3987 100.003 97.0201 101.721 97.1944 102.159L109.976 149.861H119.636L106.085 96.7062C107.371 94.715 108.057 92.3862 108.06 90.0051C108.059 83.2436 102.659 77.7627 95.9991 77.7629Z" fill="white"/>
<path fill-rule="evenodd" clip-rule="evenodd" d="M107.258 138.279C103.566 139.132 99.7891 139.563 96 139.563C92.2109 139.563 88.4341 139.132 84.7423 138.279" fill="white"/>
<path d="M107.258 138.279C103.566 139.132 99.7891 139.563 96 139.563C92.2109 139.563 88.4341 139.132 84.7423 138.279" stroke="white" stroke-width="8" stroke-miterlimit="1" stroke-linecap="round"/>
<path d="M72.8594 118.055C69.3817 114.854 66.6058 110.967 64.707 106.639C62.8081 102.311 61.8278 97.6365 61.8278 92.9102C61.8278 83.8472 65.428 75.1554 71.8366 68.7468C78.2451 62.3383 86.9369 58.738 96 58.738C105.063 58.738 113.755 62.3383 120.163 68.7468C126.572 75.1554 130.172 83.8472 130.172 92.9102C130.172 97.6376 129.191 102.313 127.292 106.642C125.392 110.971 122.615 114.859 119.136 118.059" stroke="#CCDEFF" stroke-width="8" stroke-miterlimit="1" stroke-linecap="round"/>
<defs>
<linearGradient id="paint0_linear_30_5" x1="8.00001" y1="96" x2="184" y2="96" gradientUnits="userSpaceOnUse">
<stop stop-color="#ABABFF"/>
<stop offset="1" stop-color="#728DBE"/>
</linearGradient>
</defs>
</svg>

<svg xmlns="http://www.w3.org/2000/svg" width="192" height="192" fill="none"><path fill="url(#a)" fill-rule="evenodd" d="M96 184c48.6 0 88-39.4 88-88S144.6 8 96 8 8 47.4 8 96s39.4 88 88 88Z" clip-rule="evenodd"/><path stroke="#CCDEFF" stroke-linecap="round" stroke-miterlimit="1" stroke-width="8" d="M62.141 129.791a49.998 49.998 0 0 1-1.496-72.146A50 50 0 0 1 146 93v0a50 50 0 0 1-16.148 36.798"/><path fill="#fff" fill-rule="evenodd" d="M96 77.763c-6.66 0-12.059 5.481-12.06 12.242 0 2.381.689 4.71 1.975 6.701l-13.55 53.155h9.66l12.779-47.702c.25-.512.796-2.155 1.195-2.146.4-.01 1.021 1.708 1.195 2.146l12.782 47.702h9.66l-13.551-53.155a12.384 12.384 0 0 0 1.975-6.7c-.001-6.762-5.401-12.243-12.06-12.243Z" clip-rule="evenodd"/><path fill="#fff" fill-rule="evenodd" d="M107.258 138.279a50.011 50.011 0 0 1-22.516 0" clip-rule="evenodd"/><path stroke="#fff" stroke-linecap="round" stroke-miterlimit="1" stroke-width="8" d="M107.258 138.279a50.011 50.011 0 0 1-22.516 0"/><path stroke="#CCDEFF" stroke-linecap="round" stroke-miterlimit="1" stroke-width="8" d="M72.86 118.055A34.178 34.178 0 0 1 61.827 92.91a34.172 34.172 0 1 1 57.308 25.149"/><defs><linearGradient id="a" x1="8" x2="184" y1="96" y2="96" gradientUnits="userSpaceOnUse"><stop stop-color="#ABABFF"/><stop offset="1" stop-color="#728DBE"/></linearGradient></defs></svg>
